icons/currency/currency-bitcoin.svg

<svg width="14" height="14" viewBox="0 0 14 14" fill="none"
    xmlns="http://www.w3.org/2000/svg">
    <path d="M6 2V3M7.5 2V3M6 11V12M7.5 11V12" stroke="green" stroke-linecap="round"/>
    <path d="M7.59277 2.5C8.31345 2.50009 8.99899 2.81122 9.47363 3.35352C10.2984 4.29608 10.2984 5.70392 9.47363 6.64648C9.39055 6.74141 9.29819 6.82592 9.20312 6.90625C9.39409 7.03035 9.57062 7.17869 9.72363 7.35352C10.5484 8.29608 10.5484 9.70392 9.72363 10.6465C9.24899 11.1888 8.56345 11.4999 7.84277 11.5H4.5C4.22386 11.5 4 11.2761 4 11C4 10.7239 4.22386 10.5 4.5 10.5H5V3.5H4.5C4.22386 3.5 4 3.27614 4 3C4 2.72386 4.22386 2.5 4.5 2.5H7.59277ZM6 10.5H7.84277C8.2752 10.4999 8.68692 10.3127 8.97168 9.9873C9.46602 9.42191 9.46602 8.57809 8.97168 8.0127C8.68692 7.68725 8.2752 7.50009 7.84277 7.5H6V10.5ZM6 6.5H7.59277C8.0252 6.49991 8.43692 6.31275 8.72168 5.9873C9.21602 5.42191 9.21602 4.57809 8.72168 4.0127C8.43692 3.68725 8.0252 3.50009 7.59277 3.5H6V6.5Z" fill="red"/>
</svg>

<svg xmlns="http://www.w3.org/2000/svg" width="14" height="14" fill="none" viewBox="0 0 14 14"><path stroke="green" stroke-linecap="round" d="M6 2v1m1.5-1v1M6 11v1m1.5-1v1"/><path fill="red" d="M7.593 2.5a2.5 2.5 0 0 1 1.88 4.146c-.082.095-.175.18-.27.26a2.5 2.5 0 0 1-1.36 4.594H4.5a.5.5 0 0 1 0-1H5v-7h-.5a.5.5 0 0 1 0-1zM6 10.5h1.843a1.501 1.501 0 0 0 1.129-2.487 1.5 1.5 0 0 0-1.13-.513H6zm0-4h1.593a1.501 1.501 0 0 0 0-3H6z"/></svg>
